X:66
T:Tickle the Wig
T:Lass in the Parlour, The
R:slip jig
Z:id:hn-slipjig-66
M:9/8
L:1/8
K:Ador
A3 edB gdB | A3 edc dBG | A3 edB gdB |1 g3 edc BAG :|2 g3 cde cdB ||
|: c3 dec d2B | c3 dec dBG | c3 dec def | g3 edc BAG :|

